svgs/true_ilm.svg

<svg width="192" height="192" viewBox="0 0 192 192" fill="none" xmlns="http://www.w3.org/2000/svg">
<path d="M74 77V136H118V77" stroke="black" stroke-width="12" stroke-linejoin="round"/>
<path d="M131.172 63.8284L118 77V93L96 77L74 93V77L60.8284 63.8284C58.3086 61.3086 60.0932 57 63.6569 57H128.343C131.907 57 133.691 61.3086 131.172 63.8284Z" stroke="black" stroke-width="12" stroke-linejoin="round"/>
<path d="M70 57L96 30M96 30L122 57M96 30V22" stroke="black" stroke-width="12" stroke-linecap="round" stroke-linejoin="round"/>
<path d="M95.9996 170L82.9996 156H63.6565C60.0928 156 58.3082 151.691 60.828 149.172L73.9996 136H118L131.171 149.172C133.691 151.691 131.906 156 128.343 156H109L95.9996 170Z" stroke="black" stroke-width="12" stroke-linejoin="round"/>
</svg>

<svg xmlns="http://www.w3.org/2000/svg" width="192" height="192" fill="none" viewBox="0 0 192 192"><path stroke="#000" stroke-linejoin="round" stroke-width="12" d="M74 77v59h44V77"/><path stroke="#000" stroke-linejoin="round" stroke-width="12" d="M131.172 63.828 118 77v16L96 77 74 93V77L60.828 63.828c-2.52-2.52-.735-6.828 2.829-6.828h64.686c3.564 0 5.348 4.309 2.829 6.828Z"/><path stroke="#000" stroke-linecap="round" stroke-linejoin="round" stroke-width="12" d="m70 57 26-27m0 0 26 27M96 30v-8"/><path stroke="#000" stroke-linejoin="round" stroke-width="12" d="m96 170-13-14H63.657c-3.564 0-5.349-4.309-2.829-6.828L74 136h44l13.171 13.172c2.52 2.519.735 6.828-2.828 6.828H109z"/></svg>
